X:1
T:Cobb, 88.78.87
T:Cobb, 88.78.87
T:Gerard Francis Cobb (1838-1904)
T:Public Domain Courtesy of the Cyber Hymnal™
C:Gerard Francis Cobb (1838-1904)
Z:Public Domain
Z:Courtesy of the Cyber Hymnal™
%%score ( 1 2 ) ( 3 4 )
L:1/8
Q:1/4=115
M:4/4
K:F
V:1 treble 
V:2 treble 
V:3 bass 
V:4 bass 
V:1
 F3"^Brightly" [FG] [FA]2 [FA]2 | [FA]2 [FB]2 (AG) F2 | [FA]3 [EB] [Fc]2 [Ec]2 | %3
 [Fc]2 [Fd]2 ([Ec][GB]) [FA]2 | [FA]3 [EB] [Fc]2 [CA]2 | [FA]2 (GF) [EG]4 | F3 [FG] [FA]2 [GA]2 | %7
 [^FA]2 [GB]2 (AG) =F2 | [FA]3 [FB] [Fc]2 [Gc]2 | [^Fc]2 [Dd]2 ([Dc][=FB]) [EA]2 | %10
 [FA]3 [CG] [FA]2 [Fc]2 | [EA]2 [EG]2 [CF]4 |] %12
V:2
 F3 x5 | x4 E2 x2 | x8 | x8 | x8 | x2 D2 x4 | x8 | x4 E2 x2 | x8 | x8 | x8 | x8 |] %12
V:3
 [F,A,]3 [F,B,] [F,C]2 [F,C]2 | [F,C]2 [B,,D]2 (CB,) [F,A,]2 | [F,C]3 [G,C] [A,C]2 [G,B,]2 | %3
 [F,A,]2 [B,,B,]2 (G,C) [F,C]2 | [F,C]3 [G,C] [A,C]2 [F,C]2 | [D,=B,]2 [G,,B,]2 (C2 _B,2) | %6
 [F,A,]3 [F,B,] [F,C]2 [E,^C]2 | [D,D]2 [G,,D]2 (CB,) [F,A,]2 | [F,C]3 [F,G,] [F,A,]2 [_E,A,]2 | %9
 [D,A,]2 [^F,A,]2 (G,D) [A,^C]2 | [F,C]3 [E,C] [F,C]2 [A,,C]2 | [C,C]2 [C,B,]2 [F,A,]4 |] %12
V:4
 x8 | x4 C,2 x2 | x8 | x4 C,2 x2 | x8 | x4 C,4 | x8 | x4 C,2 x2 | x8 | x4 G,2 x2 | x8 | x8 |] %12

